!!!OTL: Yankee Doodle
!!!COM: unknown
!!!ODT: 1750 (18th century)
!!!YOR: The Folksong Fake Book
!!!YOY: 2000
!!!AST: Folk song
!!!YEC: Brian Luke, 2001
**kern	**harm
*k[f#]	*k[f#]
*M4/4	*M4/4
*G:	*G:
*>A	*>A
=1	=1
4g	I
4g	.
4a	.
4b	.
=2	=2
4g	.
4b	.
2a	V7
=3	=3
4g	I
4g	.
4a	.
4b	.
=4	=4
2g	.
2f#	V7
=5	=5
4g	I
4g	.
4a	.
4b	.
=6	=6
4cc	IV
4b	.
4a	.
4g	.
=7	=7
4f#	V7
4d	.
4e	.
4f#	.
=8	=8
2g	I;
2g	.
*>B	*>B
=9	=9
4.e	IV
8f#	.
4e	.
4d	.
=10	=10
4e	.
4f#	.
2g	.
=11	=11
4.d	I
8e	.
4d	.
4c	.
=12	=12
2B	.
2d	.
=13	=13
4.e	IV
8f#	.
4e	.
4d	.
=14	=14
4e	.
4f#	.
4g	.
4e	.
=15	=15
4d	I
4g	.
4f#	V7
4a	.
=16	=16
2g	I;
2g	.
*-	*-
